dist/img/check.svg

<?xml version="1.0" encoding="UTF-8"?>
<svg xmlns="http://www.w3.org/2000/svg" xmlns:xlink="http://www.w3.org/1999/xlink" width="26pt" height="26pt" viewBox="0 0 26 26" version="1.1">
<g id="surface885832">
<path style=" stroke:none;fill-rule:nonzero;fill:rgb(100%,36.078431%,36.078431%);fill-opacity:1;" d="M 22.566406 4.730469 L 20.773438 3.511719 C 20.277344 3.175781 19.597656 3.304688 19.265625 3.796875 L 10.476562 16.757812 L 6.4375 12.71875 C 6.015625 12.296875 5.328125 12.296875 4.90625 12.71875 L 3.371094 14.253906 C 2.949219 14.675781 2.949219 15.363281 3.371094 15.789062 L 9.582031 22 C 9.929688 22.347656 10.476562 22.613281 10.96875 22.613281 C 11.460938 22.613281 11.957031 22.304688 12.277344 21.839844 L 22.855469 6.234375 C 23.191406 5.742188 23.0625 5.066406 22.566406 4.730469 Z M 22.566406 4.730469 "/>
</g>
</svg>

<svg xmlns="http://www.w3.org/2000/svg" width="26pt" height="26pt" viewBox="0 0 26 26"><path d="M22.566 4.73l-1.793-1.218a1.088 1.088 0 00-1.507.285l-8.79 12.96-4.039-4.038a1.085 1.085 0 00-1.53 0L3.37 14.254a1.09 1.09 0 000 1.535L9.582 22c.348.348.895.613 1.387.613s.988-.308 1.308-.773L22.855 6.234a1.082 1.082 0 00-.289-1.504zm0 0" fill="#ff5c5c"/></svg>
